X:1
T:He Did Not Die in Vain
T:Grant Colfax Tullar
T:He Did Not Die in Vain
T:Public Domain
T:Public Domain
T:Public Domain
C:Grant Colfax Tullar
Z:Public Domain
%%score 1 2 3
L:1/8
M:3/4
K:Eb
V:1 treble 
V:2 treble 
V:3 bass 
V:1
"^With expression" [B,B][G,E] [CA] | [B,G]3 [CA] [A,F]>[B,G] | [G,E]3 [G,E] [F,D][G,E] | %3
w: 1.~My bless- èd|Lord was cru- ci-|fied, The day was|
w: 2.~He brings His|great sal- va- tion|nigh, And on His|
w: 3.~O, won- drous|news of life and|love! That Je- sus|
 [A,F]3 [DB] [DB]>[CA] | [B,G]3 [B,G] [G,E][CA] | [B,G]3 [CA] [A,F]>[B,G] | [G,E]4 [EG]2 | %7
w: dark, and grief was|wide, For hope was|crushed and all seemed|vain, Un-|
w: love bids us re-|ly; He bought our|peace through grief and|pain; But|
w: lives and reigns a-|bove! He made the|path to glo- ry|plain; Ah,|
 [DF][DF] [DF][Fd] [Fd]>[Ec] | [DB]3 ||"^Refrain" [DB][DB] [Ec] | %10
w: til that Sav- ior rose a-|gain.||
w: oh! He did not die in|vain!|Ring out the|
w: no! He did not die in|vain.||
 [DB]3 [CA] [CA]>[_CE] [B,G]4 [EG]2 | [Ec]3 [CE] [_CE]>[CE] | [B,G]3 [B,G] [A,F][G,E] | %13
w: |||
w: bless- èd news a- gain! Oh!|bear a- loft the|strain; The might- y|
w: |||
 [B,G]3 [EG] [_DA][DB] | [Cc]4 [_Ce]2 | [B,B]3 [B,G] [B,G]>[A,A] | [G,E]3 |] %17
w: ||||
w: Lord is ris’n in|power, He|died, but not in|vain!|
w: ||||
V:2
 [Bg][Ge] [ca] | [Bg]3 [ca] [Af]>[Bg] | [Ge]3 [Ge] [Fd][Ge] | [Af]3 [db] [db]>[ca] | %4
 [Bg]3 [Bg] [Ge][ca] | [Bg]3 [ca] [Af]>[Bg] | [Ge]4 [Geg]2 | [Fdf][Fdf] [Fdf][dfd'] [dfd']>[cec'] | %8
 [Bdfb]3 || [db][db] [ec'] | [db]3 [ca] [ca]>[_ce] [Bg]4 [Bg]2 | [ec']3 [ce] [_cf]>[ce] | %12
 [Bg]3 [Bg] [Af][Ge] | [Bg]3 [eg] [da][_db] | [cc']4 [Ee]2 | [EB]3 [EG] [DG]>[DF] | [B,E]3 |] %17
V:3
 z3 | (E,,[G,B,E] [B,EG]2) [A,B,D]2 | (E,,[G,B,E] [B,EG]2) [G,B,E]2 | %3
 (D,,[A,B,D] [B,DF]2) [A,B,D]2 | (E,,[G,B,E] [B,EG]2) [G,B,E]2 | (E,,[G,B,E] [B,EG]2) [A,B,D]2 | %6
 (E,,[G,B,E] [B,EG]2) [G,B,E]2 | F,,2 [F,B,D]2 [F,A,E]2 | [B,,D,F,B,]3 || z3 | %10
 (B,,[A,B,D] [B,DA]2) [A,B,D]2 (E,,[G,B,E] [B,EG]2) [G,B,E]2 | (A,,[E,A,C]) [A,CE]2 [E,A,C]2 | %12
 (E,,[G,B,E]) [B,EG]2 [A,B,D]2 | (E,,[G,B,E]) [B,EG]2 [A,B,D]2 | (A,,[E,A,C]) [A,CE]2 [_C,^F,]2 | %15
 [B,,G,]3 [B,,B,] [B,,B,]>[B,,A,] | [E,G,]3 |] %17

